assets/illustrations/circle-mountains.svg

<svg width="1251" height="872" fill="none" xmlns="http://www.w3.org/2000/svg"><path fill-rule="evenodd" clip-rule="evenodd" d="M1101 806.939c43.33-78.036 68-167.856 68-263.439C1169 243.333 925.667 0 625.5 0 325.333 0 82 243.333 82 543.5c0 95.2 24.477 184.683 67.48 262.5H1101v.939Z" fill="#DBD1AD"/><path d="M403.5 783.57c38.355-17.953 141.053-42.47 245 3.09l-245-3.09Z" fill="#093409"/><path d="M0 820.159c36.5-10.666 118.5-51 154.5-127 45-95-3.5-217.5 112-26.5 62.119 102.725 166.436 142.355 252.85 153.5H626c-26.654 4.097-64.525 5.433-106.65 0H0Z" fill="#093409"/><path d="M242.5 843.66c130.5-51.314 435-123.154 609 0h-609Z" fill="#247022"/><path d="M609.858 795.036c2.997 5.38 24.474 4.708 26.472 5.044 6.659 2.914 13.585 10.153-11.987 15.802-31.966 7.06-112.379-1.009-119.371-5.716-5.594-3.766 39.957-11.655 63.431-15.13 12.82-1.793 39.058-4.303 41.455 0Z" fill="#05B9D0"/><path d="M405.755 685.605c40.721-61.114 104.13 79.906 130.745 158.055h-256c24.785-27.22 84.535-96.94 125.255-158.055Z" fill="#5B9459"/><path d="M521.5 832.16c-67.2-4.4-124.333 10.5-144.5 18.5h236c-2.5-4.334-24.3-14.1-91.5-18.5Z" fill="#093409"/><path fill-rule="evenodd" clip-rule="evenodd" d="M49 832.46c35.833-48.334 131.1-116 225.5 0H49Z" fill="#247022"/><path d="M207 821.16c43.6-40.4 174.5 9.834 234.5 40h-268c2.4-10.4 23.333-31 33.5-40Z" fill="#81C730"/><path d="M230.5 870.329c36.667-13.333 120.8-32 164 0h-164Z" fill="#C0E398"/><path d="M885.5 796.161c-24.833-52.5-91.8-126-161 0h161Zm158-121.002c-32.4-29.6-85.5 61-108 110H1251c-12.83-16-46.7-71.8-79.5-167s-58.33-36-67 5.5c-6.83 29.5-28.6 81.1-61 51.5Z" fill="#093409"/><path d="M1034.5 805.654c45-41.5 139.1-99.6 155.5 0h-155.5Z" fill="#5B9459"/><path fill-rule="evenodd" clip-rule="evenodd" d="M1135 816.659c-26.83-24-87.1-68.3-113.5-53.5-26.4 14.8-222.667 41.833-317.5 53.5h431Z" fill="#247022"/><path d="M786.653 709.678C775.875 634.292 670.06 754.255 618.5 823.66h242c-20.125-6.583-63.07-38.596-73.847-113.982Z" fill="#5B9459"/><path d="M994.5 843.169c-21.922-49.982-105.412-119.459-264 2.491l264-2.491Z" fill="#81C730"/><path d="M543.5 871.532c63-56.5 223.8-135.6 363 0h-363Z" fill="#C0E398"/></svg>

<svg width="1251" height="872" viewBox="0 0 1251 872" fill="none" xmlns="http://www.w3.org/2000/svg">
<path fill-rule="evenodd" clip-rule="evenodd" d="M1101 806.939C1144.33 728.903 1169 639.083 1169 543.5C1169 243.333 925.667 0 625.5 0C325.333 0 82 243.333 82 543.5C82 638.7 106.477 728.183 149.48 806H1101V806.939Z" fill="#DBD1AD"/>
<path d="M403.5 783.57C441.855 765.617 544.553 741.1 648.5 786.66L403.5 783.57Z" fill="#093409"/>
<path d="M0 820.159C36.5 809.493 118.5 769.159 154.5 693.159C199.5 598.159 151 475.659 266.5 666.659C328.619 769.384 432.936 809.014 519.35 820.159H626C599.346 824.256 561.475 825.592 519.35 820.159H0Z" fill="#093409"/>
<path d="M242.5 843.66C373 792.346 677.5 720.506 851.5 843.66H242.5Z" fill="#247022"/>
<path d="M609.858 795.036C612.855 800.416 634.332 799.744 636.33 800.08C642.989 802.994 649.915 810.233 624.343 815.882C592.377 822.942 511.964 814.873 504.972 810.166C499.378 806.4 544.929 798.511 568.403 795.036C581.223 793.243 607.461 790.733 609.858 795.036Z" fill="#05B9D0"/>
<path d="M405.755 685.605C446.476 624.491 509.885 765.511 536.5 843.66H280.5C305.285 816.44 365.035 746.72 405.755 685.605Z" fill="#5B9459"/>
<path d="M521.5 832.16C454.3 827.76 397.167 842.66 377 850.66H613C610.5 846.326 588.7 836.56 521.5 832.16Z" fill="#093409"/>
<path fill-rule="evenodd" clip-rule="evenodd" d="M49 832.46C84.8333 784.126 180.1 716.46 274.5 832.46H49Z" fill="#247022"/>
<path d="M207 821.16C250.6 780.76 381.5 830.994 441.5 861.16H173.5C175.9 850.76 196.833 830.16 207 821.16Z" fill="#81C730"/>
<path d="M230.5 870.329C267.167 856.996 351.3 838.329 394.5 870.329H230.5Z" fill="#C0E398"/>
<path d="M885.5 796.161C860.667 743.661 793.7 670.161 724.5 796.161H885.5Z" fill="#093409"/>
<path d="M1043.5 675.159C1011.1 645.559 958 736.159 935.5 785.159H1251C1238.17 769.159 1204.3 713.359 1171.5 618.159C1138.7 522.959 1113.17 582.159 1104.5 623.659C1097.67 653.159 1075.9 704.759 1043.5 675.159Z" fill="#093409"/>
<path d="M1034.5 805.654C1079.5 764.154 1173.6 706.054 1190 805.654H1034.5Z" fill="#5B9459"/>
<path fill-rule="evenodd" clip-rule="evenodd" d="M1135 816.659C1108.17 792.659 1047.9 748.359 1021.5 763.159C995.1 777.959 798.833 804.992 704 816.659H1135Z" fill="#247022"/>
<path d="M786.653 709.678C775.875 634.292 670.06 754.255 618.5 823.66H860.5C840.375 817.077 797.43 785.064 786.653 709.678Z" fill="#5B9459"/>
<path d="M994.5 843.169C972.578 793.187 889.088 723.71 730.5 845.66L994.5 843.169Z" fill="#81C730"/>
<path d="M543.5 871.532C606.5 815.032 767.3 735.932 906.5 871.532H543.5Z" fill="#C0E398"/>
</svg>
